X: 22926
T: Larry O'Gaff's
R: jig
M: 6/8
K: Dmajor
|dDD FED|ABA AFD|GBG FAF|EFG ABc|
dDD FED|ABA AFD|GBG FAF|EFE D2:|
ABc d3|efe edB|ABd ede|fdc dcB|
ABc d3|ABA AFD|GBG FAF|1 EFE D2:|2 EFG ABc||

